icons/Twitter.svg

<svg width="256" height="256" viewBox="0 0 256 256" fill="none" xmlns="http://www.w3.org/2000/svg">
<rect width="256" height="256" rx="60" fill="white"/>
<rect width="256" height="256" rx="60" fill="#1D9BF0"/>
<path d="M199.572 91.4114C199.682 92.9983 199.682 94.5851 199.682 96.1866C199.682 144.984 162.534 201.262 94.607 201.262V201.232C74.5411 201.262 54.8921 195.514 38 184.677C40.9177 185.028 43.8501 185.203 46.7898 185.21C63.4186 185.225 79.5722 179.645 92.6545 169.371C76.8519 169.071 62.9945 158.768 58.1536 143.726C63.6892 144.794 69.3931 144.574 74.8263 143.09C57.5978 139.609 45.2029 124.472 45.2029 106.892C45.2029 106.731 45.2029 106.578 45.2029 106.424C50.3364 109.283 56.0841 110.87 61.9634 111.046C45.7367 100.201 40.7349 78.6144 50.5338 61.7368C69.2834 84.8081 96.947 98.8337 126.644 100.318C123.667 87.4919 127.733 74.0513 137.327 65.0348C152.201 51.0531 175.594 51.7697 189.576 66.6363C197.846 65.0056 205.773 61.9708 213.027 57.671C210.271 66.2195 204.501 73.4809 196.793 78.0952C204.113 77.2323 211.265 75.2725 218 72.2816C213.042 79.7112 206.797 86.1829 199.572 91.4114Z" fill="white"/>
</svg>

<svg xmlns="http://www.w3.org/2000/svg" width="256" height="256" fill="none" viewBox="0 0 256 256"><rect width="256" height="256" fill="#fff" rx="60"/><rect width="256" height="256" fill="#1D9BF0" rx="60"/><path fill="#fff" d="M199.57 91.41c.11 1.59.11 3.18.11 4.78 0 48.8-37.15 105.07-105.07 105.07v-.03A104.5 104.5 0 0 1 38 184.68q4.38.52 8.79.53a74 74 0 0 0 45.86-15.84 37 37 0 0 1-34.5-25.64 37 37 0 0 0 16.68-.64 36.9 36.9 0 0 1-29.63-36.2v-.47a37 37 0 0 0 16.76 4.63 37 37 0 0 1-11.43-49.31 104.8 104.8 0 0 0 76.11 38.58 36.95 36.95 0 0 1 62.94-33.68 74 74 0 0 0 23.45-8.97 37 37 0 0 1-16.24 20.43A74 74 0 0 0 218 72.28a75 75 0 0 1-18.43 19.13"/></svg>
